src/assets/images/skills/express.svg

<?xml version="1.0" encoding="UTF-8" standalone="no"?>
<svg width="64px" height="64px" viewBox="0 0 64 64" version="1.1" xmlns="http://www.w3.org/2000/svg" xmlns:xlink="http://www.w3.org/1999/xlink">
    <!-- Generator: Sketch 3.6.1 (26313) - http://www.bohemiancoding.com/sketch -->
    <title>icons/skills/id-177</title>
    <desc>Created with Sketch.</desc>
    <defs></defs>
    <g id="Brands" stroke="none" stroke-width="1" fill="none" fill-rule="evenodd">
        <g id="icons/skills/id-177">
            <path d="M6.0065556,2 L57.9934444,2 C60.206204,2 62,3.79568082 62,6.0065556 L62,57.9934444 C62,60.206204 60.2043192,62 57.9934444,62 L6.0065556,62 C3.79379604,62 2,60.2043192 2,57.9934444 L2,6.0065556 C2,3.79379604 3.79568082,2 6.0065556,2 Z" id="bg" stroke="#D1D3D4" stroke-width="0.5" fill="#FCFCFC"></path>
            <path d="M8.4342427,26.5289758 L8.4342427,37 L15.7375621,37 L15.7375621,36.1494126 L9.4314831,36.1494126 L9.4314831,32.013798 L15.2682725,32.013798 L15.2682725,31.1632106 L9.4314831,31.1632106 L9.4314831,27.3795632 L15.6642356,27.3795632 L15.6642356,26.5289758 L8.4342427,26.5289758 Z M19.0225893,33.0696996 L16.0895293,37 L17.2334227,37 L19.5652054,33.8176299 L21.940984,37 L23.114208,37 L20.1664827,33.0550343 L22.8942285,29.4327052 L21.7356698,29.4327052 L19.6238666,32.307104 L17.4680675,29.4327052 L16.3095088,29.4327052 L19.0225893,33.0696996 Z M24.0087913,29.4327052 L24.0087913,39.786407 L24.9327052,39.786407 L24.9327052,35.5628006 L24.9620358,35.5628006 C25.059805,35.8365542 25.1991239,36.0760851 25.3799968,36.2814003 C25.5608698,36.4867155 25.7686261,36.657809 26.0032721,36.7946858 C26.2379181,36.9315626 26.4921141,37.0342187 26.7658677,37.1026571 C27.0396213,37.1710955 27.3133709,37.2053142 27.5871245,37.2053142 C28.1639625,37.2053142 28.6650219,37.1002139 29.0903177,36.8900103 C29.5156136,36.6798066 29.8700214,36.3913919 30.153552,36.0247576 C30.4370826,35.6581232 30.6472831,35.2328338 30.7841599,34.7488764 C30.9210367,34.2649191 30.9894741,33.754083 30.9894741,33.2163526 C30.9894741,32.6786222 30.9210367,32.1677861 30.7841599,31.6838287 C30.6472831,31.1998714 30.4370826,30.774582 30.153552,30.4079477 C29.8700214,30.0413133 29.5156136,29.7504544 29.0903177,29.5353623 C28.6650219,29.3202702 28.1639625,29.2127257 27.5871245,29.2127257 C26.9711788,29.2127257 26.4212356,29.356933 25.9372782,29.645352 C25.4533209,29.9337711 25.1038014,30.3419512 24.8887093,30.8699046 L24.8593787,30.8699046 L24.8593787,29.4327052 L24.0087913,29.4327052 Z M30.0655602,33.2163526 C30.0655602,33.6074292 30.0191205,33.9960558 29.9262398,34.382244 C29.8333592,34.7684321 29.6867076,35.1130632 29.4862808,35.4161476 C29.2858541,35.719232 29.0292139,35.9660954 28.7163526,36.1567453 C28.4034913,36.3473951 28.0270857,36.4427186 27.5871245,36.4427186 C27.0982787,36.4427186 26.6852102,36.3473951 26.3479066,36.1567453 C26.0106031,35.9660954 25.7368535,35.719232 25.5266498,35.4161476 C25.3164462,35.1130632 25.1649062,34.7684321 25.0720255,34.382244 C24.9791449,33.9960558 24.9327052,33.6074292 24.9327052,33.2163526 C24.9327052,32.7861683 24.9742565,32.375544 25.0573602,31.9844674 C25.140464,31.5933908 25.2846714,31.2512039 25.4899866,30.9578964 C25.6953018,30.6645889 25.9690514,30.4299465 26.3112434,30.253962 C26.6534354,30.0779775 27.0787249,29.9899866 27.5871245,29.9899866 C28.0270857,29.9899866 28.4034913,30.0853101 28.7163526,30.27596 C29.0292139,30.4666098 29.2858541,30.7134732 29.4862808,31.0165576 C29.6867076,31.319642 29.8333592,31.6642731 29.9262398,32.0504612 C30.0191205,32.4366494 30.0655602,32.825276 30.0655602,33.2163526 L30.0655602,33.2163526 Z M32.4266735,29.4327052 L32.4266735,37 L33.3505874,37 L33.3505874,32.9670425 C33.3505874,32.566189 33.4190248,32.1971159 33.5559016,31.8598123 C33.6927784,31.5225088 33.8858696,31.2316499 34.1351809,30.987227 C34.3844923,30.7428041 34.6802396,30.5546013 35.0224316,30.422613 C35.3646236,30.2906246 35.7459176,30.2344082 36.166325,30.253962 L36.166325,29.3300481 C35.4819409,29.3007174 34.8928906,29.4522573 34.3991563,29.7846724 C33.9054221,30.1170875 33.5412375,30.5912608 33.3065915,31.2072065 L33.2772609,31.2072065 L33.2772609,29.4327052 L32.4266735,29.4327052 Z M42.2230939,32.6884018 L37.3248837,32.6884018 C37.3639914,32.3462098 37.4446497,32.0113554 37.5668611,31.6838287 C37.6890726,31.3563021 37.8528335,31.0678874 38.0581487,30.8185761 C38.2634639,30.5692647 38.5127715,30.3688409 38.806079,30.2172987 C39.0993865,30.0657566 39.436685,29.9899866 39.8179847,29.9899866 C40.1895075,29.9899866 40.5219176,30.0657566 40.8152251,30.2172987 C41.1085326,30.3688409 41.3578402,30.5692647 41.5631554,30.8185761 C41.7684706,31.0678874 41.9273431,31.3538579 42.0397776,31.6764961 C42.1522122,31.9991343 42.213317,32.3364328 42.2230939,32.6884018 L42.2230939,32.6884018 Z M37.3248837,33.4656627 L43.1470078,33.4656627 C43.1665616,32.9377093 43.1176778,32.4170963 43.0003548,31.9038083 C42.8830318,31.3905202 42.6899406,30.9359004 42.4210754,30.5399354 C42.1522103,30.1439703 41.8026908,29.8237811 41.3725065,29.5793582 C40.9423222,29.3349353 40.4241535,29.2127257 39.8179847,29.2127257 C39.2215929,29.2127257 38.7058683,29.3276027 38.2707955,29.5573602 C37.8357228,29.7871178 37.4813149,30.0901976 37.2075613,30.4666089 C36.9338077,30.8430201 36.7309397,31.2707537 36.5989513,31.7498226 C36.466963,32.2288915 36.4009698,32.7177299 36.4009698,33.2163526 C36.4009698,33.754083 36.466963,34.2649191 36.5989513,34.7488764 C36.7309397,35.2328338 36.9338077,35.6581232 37.2075613,36.0247576 C37.4813149,36.3913919 37.8357228,36.6798066 38.2707955,36.8900103 C38.7058683,37.1002139 39.2215929,37.2053142 39.8179847,37.2053142 C40.7761224,37.2053142 41.5167127,36.9706717 42.0397776,36.5013798 C42.5628426,36.0320879 42.9221389,35.3672676 43.1176772,34.506899 L42.1937633,34.506899 C42.0471096,35.0935139 41.7831368,35.5627988 41.4018371,35.9147678 C41.0205374,36.2667368 40.4925919,36.4427186 39.8179847,36.4427186 C39.3780235,36.4427186 39.0016179,36.3498393 38.6887566,36.1640779 C38.3758953,35.9783165 38.1168109,35.7436741 37.9114957,35.4601435 C37.7061805,35.1766129 37.5570847,34.8564238 37.464204,34.4995664 C37.3713234,34.1427089 37.3248837,33.7980778 37.3248837,33.4656627 L37.3248837,33.4656627 Z M48.925136,31.6471655 L49.8490499,31.6471655 C49.8294961,31.236535 49.7463935,30.879683 49.5997398,30.5765986 C49.4530861,30.2735142 49.2551065,30.0193182 49.0057951,29.814003 C48.7564838,29.6086878 48.4680691,29.4571479 48.1405424,29.3593787 C47.8130158,29.2616095 47.4586079,29.2127257 47.0773082,29.2127257 C46.7448931,29.2127257 46.4100387,29.2518328 46.0727351,29.3300481 C45.7354316,29.4082634 45.4299075,29.530473 45.1561539,29.6966806 C44.8824003,29.8628882 44.6599788,30.0828655 44.4888828,30.3566191 C44.3177867,30.6303727 44.23224,30.9578945 44.23224,31.3391942 C44.23224,31.6618324 44.2860122,31.9331378 44.3935583,32.1531183 C44.5011044,32.3730989 44.6502001,32.5588576 44.8408499,32.7103998 C45.0314998,32.8619419 45.2539213,32.9890399 45.5081211,33.0916975 C45.7623209,33.1943552 46.0409588,33.2847903 46.3440432,33.3630056 L47.5319325,33.626981 C47.7372477,33.6758656 47.9401157,33.7345262 48.1405424,33.8029646 C48.3409692,33.871403 48.5193953,33.9569497 48.6758259,34.0596074 C48.8322565,34.162265 48.9569104,34.289363 49.049791,34.4409051 C49.1426717,34.5924473 49.1891114,34.7806501 49.1891114,35.0055192 C49.1891114,35.2694959 49.1231182,35.4919174 48.9911299,35.6727903 C48.8591415,35.8536633 48.6904922,36.002759 48.485177,36.120082 C48.2798618,36.237405 48.0574403,36.3205075 47.8179059,36.3693921 C47.5783714,36.4182767 47.3461732,36.4427186 47.1213041,36.4427186 C46.5053584,36.4427186 45.9896339,36.2838461 45.574115,35.9660964 C45.158596,35.6483466 44.9312862,35.1766175 44.8921785,34.5508949 L43.9682646,34.5508949 C44.0464799,35.4797019 44.3617807,36.1542989 44.9141764,36.5747063 C45.4665722,36.9951137 46.1876089,37.2053142 47.0773082,37.2053142 C47.4292772,37.2053142 47.7861292,37.1662071 48.1478751,37.0879918 C48.509621,37.0097765 48.8346985,36.8802343 49.1231175,36.6993614 C49.4115366,36.5184884 49.6486232,36.283846 49.8343846,35.9954269 C50.020146,35.7070079 50.1130253,35.3574885 50.1130253,34.946858 C50.1130253,34.6144429 50.0494763,34.3260282 49.9223764,34.0816053 C49.7952765,33.8371824 49.6315156,33.6318703 49.4310889,33.4656627 C49.2306621,33.2994551 49.000908,33.1650246 48.7418197,33.0623669 C48.4827315,32.9597093 48.2212029,32.8888278 47.9572262,32.8497201 L46.725341,32.5710794 C46.5689104,32.5319717 46.3978169,32.4806437 46.2120555,32.4170937 C46.0262941,32.3535438 45.8552006,32.2728855 45.69877,32.1751163 C45.5423394,32.0773471 45.4127972,31.9575817 45.3101396,31.8158164 C45.2074819,31.6740512 45.1561539,31.5005135 45.1561539,31.2951983 C45.1561539,31.0507754 45.2099261,30.8454633 45.3174722,30.6792557 C45.4250183,30.5130481 45.5667814,30.3786176 45.7427659,30.27596 C45.9187504,30.1733023 46.1118416,30.0999766 46.3220453,30.0559804 C46.5322489,30.0119843 46.7400053,29.9899866 46.9453205,29.9899866 C47.2092972,29.9899866 47.4586048,30.0217611 47.6932508,30.0853111 C47.9278968,30.148861 48.1356531,30.2490729 48.3165261,30.3859497 C48.497399,30.5228265 48.6416063,30.6963642 48.7491524,30.9065679 C48.8566985,31.1167715 48.9153591,31.3636349 48.925136,31.6471655 L48.925136,31.6471655 Z M55.9791453,31.6471655 L56.9030592,31.6471655 C56.8835054,31.236535 56.8004028,30.879683 56.6537491,30.5765986 C56.5070954,30.2735142 56.3091158,30.0193182 56.0598044,29.814003 C55.8104931,29.6086878 55.5220784,29.4571479 55.1945517,29.3593787 C54.8670251,29.2616095 54.5126172,29.2127257 54.1313175,29.2127257 C53.7989024,29.2127257 53.464048,29.2518328 53.1267444,29.3300481 C52.7894409,29.4082634 52.4839168,29.530473 52.2101632,29.6966806 C51.9364096,29.8628882 51.7139881,30.0828655 51.542892,30.3566191 C51.371796,30.6303727 51.2862493,30.9578945 51.2862493,31.3391942 C51.2862493,31.6618324 51.3400215,31.9331378 51.4475676,32.1531183 C51.5551137,32.3730989 51.7042094,32.5588576 51.8948592,32.7103998 C52.0855091,32.8619419 52.3079306,32.9890399 52.5621304,33.0916975 C52.8163302,33.1943552 53.0949681,33.2847903 53.3980525,33.3630056 L54.5859418,33.626981 C54.791257,33.6758656 54.994125,33.7345262 55.1945517,33.8029646 C55.3949785,33.871403 55.5734046,33.9569497 55.7298352,34.0596074 C55.8862658,34.162265 56.0109197,34.289363 56.1038003,34.4409051 C56.196681,34.5924473 56.2431207,34.7806501 56.2431207,35.0055192 C56.2431207,35.2694959 56.1771275,35.4919174 56.0451391,35.6727903 C55.9131508,35.8536633 55.7445015,36.002759 55.5391863,36.120082 C55.3338711,36.237405 55.1114496,36.3205075 54.8719151,36.3693921 C54.6323807,36.4182767 54.4001825,36.4427186 54.1753134,36.4427186 C53.5593677,36.4427186 53.0436432,36.2838461 52.6281242,35.9660964 C52.2126053,35.6483466 51.9852955,35.1766175 51.9461878,34.5508949 L51.0222739,34.5508949 C51.1004892,35.4797019 51.41579,36.1542989 51.9681857,36.5747063 C52.5205815,36.9951137 53.2416182,37.2053142 54.1313175,37.2053142 C54.4832865,37.2053142 54.8401385,37.1662071 55.2018844,37.0879918 C55.5636303,37.0097765 55.8887078,36.8802343 56.1771268,36.6993614 C56.4655459,36.5184884 56.7026325,36.283846 56.8883939,35.9954269 C57.0741553,35.7070079 57.1670346,35.3574885 57.1670346,34.946858 C57.1670346,34.6144429 57.1034856,34.3260282 56.9763857,34.0816053 C56.8492858,33.8371824 56.6855249,33.6318703 56.4850981,33.4656627 C56.2846714,33.2994551 56.0549173,33.1650246 55.795829,33.0623669 C55.5367408,32.9597093 55.2752122,32.8888278 55.0112355,32.8497201 L53.7793503,32.5710794 C53.6229197,32.5319717 53.4518262,32.4806437 53.2660648,32.4170937 C53.0803034,32.3535438 52.9092099,32.2728855 52.7527793,32.1751163 C52.5963487,32.0773471 52.4668065,31.9575817 52.3641488,31.8158164 C52.2614912,31.6740512 52.2101632,31.5005135 52.2101632,31.2951983 C52.2101632,31.0507754 52.2639354,30.8454633 52.3714815,30.6792557 C52.4790276,30.5130481 52.6207907,30.3786176 52.7967752,30.27596 C52.9727597,30.1733023 53.1658509,30.0999766 53.3760545,30.0559804 C53.5862582,30.0119843 53.7940146,29.9899866 53.9993298,29.9899866 C54.2633065,29.9899866 54.5126141,30.0217611 54.7472601,30.0853111 C54.9819061,30.148861 55.1896624,30.2490729 55.3705353,30.3859497 C55.5514083,30.5228265 55.6956156,30.6963642 55.8031617,30.9065679 C55.9107078,31.1167715 55.9693684,31.3636349 55.9791453,31.6471655 L55.9791453,31.6471655 Z" id="logo" fill="#444444"></path>
        </g>
    </g>
</svg>

<svg xmlns="http://www.w3.org/2000/svg" width="64" height="64" fill-rule="evenodd" xmlns:v="https://vecta.io/nano"><path d="M6.007 2h51.987A4.01 4.01 0 0 1 62 6.007v51.987A4.01 4.01 0 0 1 57.993 62H6.007A4.01 4.01 0 0 1 2 57.993V6.007A4.01 4.01 0 0 1 6.007 2z" stroke="#d1d3d4" stroke-width=".5" fill="#fcfcfc"/><path d="M8.434 26.53V37h7.303v-.85H9.43v-4.136h5.837v-.85H9.43V27.38h6.233v-.85h-7.23zm10.588 6.54L16.1 37h1.144l2.332-3.182L21.94 37h1.173l-2.948-3.945 2.728-3.622h-1.16l-2.112 2.874-2.156-2.874H16.3l2.713 3.637zm4.986-3.637v10.354h.924v-4.224h.03c.098.274.237.513.418.72s.39.376.623.513a2.9 2.9 0 0 0 .763.308c.274.068.548.103.82.103.577 0 1.078-.105 1.503-.315a3.01 3.01 0 0 0 1.063-.865c.284-.367.494-.792.63-1.276s.205-.995.205-1.533-.068-1.05-.205-1.533-.347-.91-.63-1.276-.638-.657-1.063-.873-.926-.323-1.503-.323a3.16 3.16 0 0 0-1.65.433c-.484.288-.833.697-1.05 1.225h-.03v-1.437h-.85zm6.057 3.784a4.97 4.97 0 0 1-.139 1.166c-.093.386-.24.73-.44 1.034s-.457.55-.77.74-.69.286-1.13.286c-.49 0-.902-.095-1.24-.286a2.45 2.45 0 0 1-.821-.741c-.2-.303-.362-.648-.455-1.034a4.97 4.97 0 0 1-.139-1.166c0-.43.042-.84.125-1.232s.227-.733.433-1.027a2.22 2.22 0 0 1 .821-.704c.342-.176.767-.264 1.276-.264.44 0 .816.095 1.13.286s.57.438.77.74.347.648.44 1.034a4.97 4.97 0 0 1 .139 1.166h0zm2.36-3.784V37h.924v-4.033c0-.4.068-.77.205-1.107s.33-.628.58-.873.545-.433.887-.565.723-.188 1.144-.17v-.924c-.684-.03-1.273.122-1.767.455s-.858.807-1.093 1.423h-.03v-1.775h-.85zm9.796 3.256h-4.898a4.24 4.24 0 0 1 .242-1.005c.122-.328.286-.616.49-.865a2.36 2.36 0 0 1 .748-.601c.293-.152.63-.227 1.012-.227a2.14 2.14 0 0 1 .997.227 2.36 2.36 0 0 1 .748.601 2.77 2.77 0 0 1 .477.858 3.34 3.34 0 0 1 .183 1.012h0zm-4.898.777h5.822c.02-.528-.03-1.05-.147-1.562a3.98 3.98 0 0 0-.579-1.364c-.27-.396-.618-.716-1.05-.96s-.948-.367-1.555-.367c-.596 0-1.112.115-1.547.345s-.79.533-1.063.91-.477.804-.61 1.283-.198.968-.198 1.467a5.8 5.8 0 0 0 .198 1.533c.132.484.335.91.61 1.276s.628.655 1.063.865.95.315 1.547.315c.958 0 1.7-.235 2.222-.704s.882-1.134 1.078-1.994h-.924c-.147.587-.41 1.056-.792 1.408s-.91.528-1.584.528c-.44 0-.816-.093-1.13-.28a2.56 2.56 0 0 1-.777-.704 2.84 2.84 0 0 1-.447-.961 4.1 4.1 0 0 1-.139-1.034h0zm11.6-1.818h.924c-.02-.41-.103-.767-.25-1.07s-.345-.557-.594-.763-.538-.357-.865-.455-.682-.147-1.063-.147c-.332 0-.667.04-1.005.117s-.643.2-.917.367-.496.386-.667.66-.257.6-.257.983c0 .323.054.594.16.814a1.6 1.6 0 0 0 .447.557c.19.152.413.28.667.38s.533.193.836.27l1.188.264.61.176c.2.068.38.154.535.257a1.21 1.21 0 0 1 .374.381c.093.152.14.34.14.565 0 .264-.066.486-.198.667a1.6 1.6 0 0 1-.506.447c-.205.117-.428.2-.667.25a3.48 3.48 0 0 1-.697.073c-.616 0-1.132-.16-1.547-.477s-.643-.79-.682-1.415h-.924c.078.93.394 1.603.946 2.024s1.273.63 2.163.63c.352 0 .71-.04 1.07-.117a3.02 3.02 0 0 0 .975-.389c.288-.18.526-.416.71-.704s.28-.638.28-1.05c0-.332-.064-.62-.19-.865a1.97 1.97 0 0 0-.491-.616 2.53 2.53 0 0 0-.689-.403 3.53 3.53 0 0 0-.785-.213l-1.232-.28-.513-.154c-.186-.064-.357-.144-.513-.242a1.37 1.37 0 0 1-.389-.359c-.103-.142-.154-.315-.154-.52 0-.244.054-.45.16-.616s.25-.3.425-.403.37-.176.58-.22.418-.066.623-.066a2.85 2.85 0 0 1 .748.095 1.8 1.8 0 0 1 .623.301 1.5 1.5 0 0 1 .433.521 1.74 1.74 0 0 1 .176.741h0zm7.054 0h.924c-.02-.41-.103-.767-.25-1.07s-.345-.557-.594-.763-.538-.357-.865-.455-.682-.147-1.063-.147c-.332 0-.667.04-1.005.117s-.643.2-.917.367-.496.386-.667.66-.257.6-.257.983c0 .323.054.594.16.814a1.6 1.6 0 0 0 .447.557c.19.152.413.28.667.38s.533.193.836.27l1.188.264.61.176c.2.068.38.154.535.257a1.21 1.21 0 0 1 .374.381c.093.152.14.34.14.565 0 .264-.066.486-.198.667a1.6 1.6 0 0 1-.506.447c-.205.117-.428.2-.667.25a3.48 3.48 0 0 1-.697.073c-.616 0-1.132-.16-1.547-.477s-.643-.79-.682-1.415h-.924c.078.93.394 1.603.946 2.024s1.273.63 2.163.63c.352 0 .71-.04 1.07-.117a3.02 3.02 0 0 0 .975-.389c.288-.18.526-.416.71-.704s.28-.638.28-1.05c0-.332-.064-.62-.19-.865a1.97 1.97 0 0 0-.491-.616 2.53 2.53 0 0 0-.689-.403 3.53 3.53 0 0 0-.785-.213l-1.232-.28-.513-.154c-.186-.064-.357-.144-.513-.242a1.37 1.37 0 0 1-.389-.359c-.103-.142-.154-.315-.154-.52 0-.244.054-.45.16-.616s.25-.3.425-.403.37-.176.58-.22S53.794 30 54 30a2.85 2.85 0 0 1 .748.095 1.8 1.8 0 0 1 .623.301 1.5 1.5 0 0 1 .433.521 1.74 1.74 0 0 1 .176.741h0z" fill="#444"/></svg>
